X:1
T:Title
T:Vorrei morire 
T:Francesco Paolo Tosti
C:Composer
%%score 1 { ( 2 3 ) | ( 4 5 ) }
L:1/8
Q:1/8=120
M:3/4
K:Gb
V:1 treble nm="Baritono" snm="Bar."
V:2 treble nm="Piano" snm="Pf."
V:3 treble 
V:4 bass 
V:5 bass 
V:1
 z6 | z6 | z6 | z6 | z6 | z6 | z6 | z6 | z6 | z6 | z2 z B B B | c c c c G A | B2 B2 G G | %13
w: ||||||||||Vor- rei mo-|rir ne la sta- gion del-|l'an- no, Quan- do~è|
 F F/ F/ F F/ A/ A G | E2 E2 z2 | z6 | z2 z2 B B | (3d d d d e e c | B2 B2 B B | %19
w: tie- pid- da- l'a- ria e~il ciel se-|re no||Quan- do|le ron- di- nel- le~il ni- do|fan- no, Quando *|
 (3F F F F2 (3G G F | F2 B2 z2 | z2 z c c3/2 B/ | B4 z2 | z2 z c e3/2 =d/ ||[K:Eb] d3 B B c | %25
w: di nuo vi fior s'or- na~il ter-|re- no;|Vor- rei mo-|rir,|vor- rei mor-|rir, vor- rei mo-|
 c d d e e d |{d} A2 A B B c | c d d e e d |{d} G2 G B B c | c d d e e d | d2 d d d c | %31
w: rir qua- ndo tra- mon- ta~il|so- le, Quan do sul|prat- to dor- mon le vi-|o- le, Lie- ta fa-|reb- be~a Dio l'al- ma ri-|tor- no A pri- ma|
 c c c c B =A | B2 B2 z2 | z2 z G G3/2 G/ | A2 z2 z2 | z2 z A A3/2 G/ | G2 z B B c | c d d e e =e | %38
w: ve- ra~e sul mo- rir del|gior- no|Vor- rei mo-|rir|vor- rei mo-|rir, Lie- ta fa-|reb- be~a Dio l'al- ma ri-|
 !>!=e2 !>!f !>!f !>!_e !>!c | e B G E F G | A2 A z/ C/ D/ E/ F/ G/ |{G} F6 ||[K:Gb] E2 z2 z2 | %43
w: tor- no A pri- ma-|ve- ra e~sul mo- rir- del|gior- no e~ sul mo- rir del|gior-|no|
 z6 | z6 | z6 | z6 | z6 | z6 | z6 | z6 | z6 | z2 z B B B | c c c c G A | B2 B G G G | F F F A A G | %56
w: |||||||||Ma quan- do~in|fu- ria~il nem- bo e~la tem-|pes ta, Al- lor che|l'a- ria si fa scu- ra|
 E2 E2 z2 | z6 | z2 z2 B B | (3d d d d e e c | B2 B B B B | F/ F/ F- F F G3/2 F/ | F2 B2 z2 | %63
w: scu- ra||Quan- do~ai|ra- mi una fo- glia più non|re- sta, Al- lo- ra|di mo- ri * re~a- vrei pa-|u- ra|
 z2 z c c3/2 B/ | B4 z2 | z2 z c e3/2 =d/ ||[K:Eb] =d3 B B c | c d d e e d |{d} A2 A B B c | %69
w: Vor- rei mo-|rir,|vor- rei mo-|rir, vor- rei mo-|rir qua ndo tra mon ta~il|so- le, Qua ndo sul|
 c d d e e d |{d} G2 G B B c | c d d e e d | d2 d d d c | c c c c B =A | B2 B2 z2 | %75
w: pra- to dor- mon le vi-|o- le, Lie- ta fa-|reb- be~a Dio l'al ma ri-|tor- no A pri- ma|ve- ra~e sul mo- rir del|gio- rno|
 z2 z G G3/2 G/ | A2 z2 z2 | z2 z A A3/2 G/ | G2 z B B c | c d d e e =e | =e2 f f _e c | %81
w: Vor- rei mo-|rir|vor- rei mo-|rir, Lie ta fa-|reb- be~a Dio l'al ma ri-|tor- no A pri ma|
 e B G E F G | A2 A z/ !>!C/ !>!D/ !>!E/ !>!F/ !>!G/ |{G} F6 | E2 z E E E | _c2 z !>!A !>!A !>!A | %86
w: ve- ra~e sul mo- rir del|gior- no e sul mo- rir del|gior-|no, vor- rei mo-|rir vor- rei mo-|
!>(! e6- | e!>)! z z4 |] %88
w: rir............||
V:2
 z2 z e- (3(efg) | g2- ge- (3(efg) | g2- ge- (3(edc) | B2- B F- F G | F E- E e- (3(ef=g) | %5
 =g2- ge- (3(ef^f) | =g2- g z (=f e | e2-) e z (=D B | (B4) B2 | B4 B2 | B4 B2 | B4 B2 | B4) G2 | %13
 E4 D2 |!<(! E4 E2!<)! | E4!p! E2 | E4 (G2 | F4 A2 | G4) (G2 | F4 =c2 | B4) (!>!B2 | _c4) (c2 | %22
 B4) (!>!B2 | c4)!ppp! =c2 ||[K:Eb]!pp! (B B B B B c | c d d e e d |{d} A2-) (A B B c | %27
 c d d e e d |{d} G2-) (G- B B c | c d d e e d | d2-) (d d d c | c c c c B =A | B2-) (B B B c | %33
 c d d e e d |{d} A2-) (A B B c | c d d e e d |{d} G2-) (G B B c | c d d e e =e | %38
 (=e2) (f) f _e c | e B G E F [_DG] | A2-) A z z2 | (D6 ||[K:Gb] E2) z!p! e (3(ef_g) | %43
 g2- ge- (3(efg) | g2- ge- (3(edc) | B2- B F- F G | F E- E e- (3(ef=g) | =g2- g e- (3(e f ^f) | %48
 =g2- g z (=fe) | e2- e z (=D B) | (B4 B2 | B4 B2 | B4 B2 | c4 c2 | B4 G2 | [EF]4 =D2 | E4) !>!D2 | %57
 E4 !>!E2 | E4 (G2 | F4 A2 | G4) (G2 | [EF]4 =c2 | B4) (!>!B2 | _c4) (c2 | B4) (!>!B2 | c4) (=c2 || %66
[K:Eb] (B) B B!pp! B B c | c d d e e d |{d} A2-) (A B B c | c d d e e d |{d} G2-) (G B B c | %71
 c d d e e d | d2-) (d d d c | [^Fc] c c c B =A | B2-) (B B B c | c d d e e d |{d} A2-) (A B B c | %77
 c d d e e d |{d} G2-) (G B B c | c d d e e =e | (=e2) (f)f _ec | e B G E F [_DG] | A2-) A z z2 | %83
 (D6 | E2) z g-!pp! (3(gfe) | e2-!ppp! e _c- (3(c B A) | G6- | G2 z4 |] %88
V:3
 z2 z z (c2 | !arpeggio!B2-) B z (c2 | !arpeggio!B2-) B z (F2 | G2-) G z (!>![A,=D]2 | %4
 G,2-) G, z (!>!=c2 | !arpeggio!B2-) B z (=c2 | (!arpeggio!=B2) _B) z (_G2 | =G2-) G z B,2 | %8
 B,4 B,2 | B,4 B,2 | B,4 B,2 | C4 C2 | B,4 (B,2 | C4 (A,2) | G,4) G,2 | G,4 G,2 | A,4 B,2 | %17
 C4 [CD]2 | B,4 B,2 | [CF]4 E2 | =D4 D2 | [EG]4 [EA]2 | =D4 D2 | [EG]4 [E=A]2 ||[K:Eb] D z z2 A2 | %25
 G2 G2 G2 | A2 A2 A2 | A2 A2 A2 | G2 G2 G2 | G2 G2 G2 | B2- B2 D2 | !>![^EF]2 !>![DF]2 [CF]2 | %32
 [B,G]2- [B,G] z _A2 | G2 G2 G2 | A2 A2 A2 | A2 A2 A2 | G2 G2 G2 | G2 G2 G2 | A2 A2 !>!^F2 | %39
 G G E B, B,2 | [A,C]2- [A,C] z z2 | (A,6 ||[K:Gb] =G,2) z2 (!>!c2 | !arpeggio!B2-) B z (!>!c2 | %44
 !arpeggio!B2-) B z (!>!F2 | G2-) G z ([A,=D]2 | (G,2) G,) z (!arpeggio!!>!=c2 | %47
 !arpeggio!B2-) B z (!>!=c2 | =B2-) B z !>!_G2 | =G2- G z B,2 | [B,E]4 [B,E]2 | [B,E]4 [B,E]2 | %52
 [B,E]4 [B,E]2 | [CG]4 [CG]2 | [B,G]4 B,2 | C4 A,2 | G,4 G,2 | G,4 G,2 | G,4 B,2 | C4 C2 | %60
 B,4 B,2 | C4 E2 | =D4 D2 | [EG]4 [EA]2 | =D4 D2 | [EG]4 [E=A]2 ||[K:Eb] =D2 z2 A2 | G2 G2 G2 | %68
 A2 A2 A2 | A2 A2 A2 | G2 G2 G2 | G2 G2 G2 | B2- B2 D2 | E2 [D^F]2 [CF]2 | [B,G]2- [B,G] z _A2 | %75
 G2 G2 G2 | A2 A2 A2 | A2 A2 A2 | G2 G2 G2 | G2 G2 G2 | A2 A2 !>!^F2 | G G E B, B,2 | %82
 [A,C]2- [A,C] z z2 | (A,6 | G,2) z4 | x6 | z2 [B,E]4- | [B,E]2 z2 z2 |] %88
V:4
!p! (E,,B, (E2) !>!A,2) |!p! (E,,B, (E2) !>![A,C]2) | (E,,B, (E2) !>![A,C]2) | (B, E, B,,2 B,,,2) | %4
 (E,, B,, (.E,2) [A,=C]2) | (E,,B, (E2) [A,=C]2) | (=G,, =D =G) z !>!=A,2 | %7
 (B, E, B,,) z ([B,,_A,]2 | ([E,_G,]4) [E,G,]2 | [E,G,]4 [E,G,]2 | [E,G,]4 [E,G,]2 | %11
 [E,G,]4 [E,G,]2 | [E,G,]4) (E,2 | A,,4 B,,2-) | (B,,4 !>!C,2 | B,,4!p! =A,,2 | !>!B,,4) (E,2 | %17
!<(! D,4!<)! F,2 |!>(! G,4)!>)! (G,,2 | A,,4!<(! =A,,2!<)! | B,,4) (!>!B,2 | (_A,4)!pp! F,2 | %22
 (B,,4) !>!B,2) | (=A,4!ppp! F,2 ||[K:Eb] B,,) z z4 | (E,,B, ([G,E]2) B,2) | %26
 (F,, B, ([A,D]2) B,2) | (B,,,B, ([A,D]2) B,2) | (E,,B, ([G,E]2) B,2) | (E,,B, ([G,E]2) B,2) | %30
 (D,, B, (D2) B,2) | (D,, ^F, (C) E D,,2) | (G,, D, G, =F, D, B,, | (E,,) B, (E2) B,2) | %34
 (F,, B, ([A,D]2) B,2) | (B,,, B, ([A,D]2) B,2) | (E,, B, ([G,E]2) B,2) | (E,, B, ([G,E]2) B,2) | %38
 (A,, C ([A,F]2) !>!=A,2) | (B,2- B, G, D, =E,) | F,2- F, z z2 | (B,,6 || %42
[K:Gb] (E,,) B, (E2) [A,C]2) | (E,, B, (E2) [A,C]2) | (E,, B, (E2) [A,C]2) | (B, E, B,,2 B,,,2) | %46
 (E,, B,, (E,2) [A,=C]2) | (E,, B, (E2) [A,=C]2) | (=G,, =D (=G) z !>!=A,2) | %49
 (B, E, B,,) z [B,,_A,]2 | (_G,4 G,2 | G,4 G,2 | G,4 G,2 | G,4 G,2 | G,4 E,2 | A,,4 B,,2-) | %56
 (B,,4 !>!C,2 | B,,4 !>!=A,,2 | B,,4) (E,2 | D,4 F,2 | G,4) (G,,2 | A,,4 =A,,2 | B,,4) (!>!B,2 | %63
 A,4)!p! (F,2 | B,,4)!ppp! (!>!B,2 | =A,4) (F,2 ||[K:Eb] B,,) z z2 z2 | (E,, B, ([G,E]2) B,2) | %68
 (F,, B, (D2) B,2) | (B,,, B, (D2) B,2) | (E,, B, (E2) B,2) | (E,, B, (E2) B,2) | %72
 (D,, B, (D2) B,2) | (D,, ^F, ([D,C]2) D,,2) | (G,,D, G, =F, D,B,, | (E,,)B, ([G,E]2) B,2) | %76
 (F,, B, ([A,D]2) B,2) | (B,,,B, ([A,D]2) B,2) | (E,, B, ([G,E]2) B,2) | (E,, B, ([G,E]2) B,2) | %80
 (A,, C ([A,F]2) !>!=A,2) | (B,2- B, G, D, =E,) | F,2- F, z z2 | (B,,6 | %84
 ((E,,) B, (([G,E]2))!pp! B,2)) | (E,, _C!ppp! ([A,E]2) C2) | (E,, B,, (G,4) | E,,2) z4 |] %88
V:5
 x6 | x6 | x6 | x6 | x6 | x6 | x6 | x6 | x6 | x6 | x6 | x6 | x6 | x6 | E,,6- | E,,6 | E,,4 D,,2 | %17
 x6 | x6 | x6 | x6 | x6 | x6 | x6 ||[K:Eb] x6 | x6 | x6 | x6 | x6 | x6 | x6 | x6 | x6 | x6 | x6 | %35
 x6 | x6 | x6 | x6 | x6 | x6 | x6 ||[K:Gb] x6 | x6 | x6 | x6 | x6 | x6 | x6 | x6 | E,4 E,2 | %51
 E,4 E,2 | E,4 E,2 | E,4 E,2 | E,4 z2 | x6 | E,,6- | E,,6 | E,,4 z2 | x6 | x6 | x6 | x6 | x6 | x6 | %65
 x6 ||[K:Eb] x6 | x6 | x6 | x6 | x6 | x6 | x6 | x6 | x6 | x6 | x6 | x6 | x6 | x6 | x6 | x6 | x6 | %83
 x6 | x6 | x6 | (E,,6 | E,,,2) z4 |] %88

